X: 356
T: Stirling Bridge
%R: strathspey
Z: 2014 John Chambers <jc:trillian.mit.edu>
B: Preston "Twenty four Country Dances for the Year 1799" p.158 #2
F: http://www.vwml.org/browse/browse-collections-dance-tune-books/browse-prestons1799# 2014-8-10
M: C|
L: 1/16
K: F
f2 |\
cF3d3F AF3F2f2 | dF3d3F D6f2 |\
cF3d3F c3df3g | agfe f3c d6 :: f2 |\
c3df2g2 a3fg2a2 |
fc3d2f2 FC3D2f2 |\
[1 c3df2g2 af3g3b | agfe f2c2 d6 :|\
[2 c3df2g2 a6b2 | agfe f2c2 d6 |]
% - - - - - - - - - - - - - - - - - - - - - - - - -
%%begintext align
%% Right hands across .| Left hands back
%% again :| lead down the middle up again
%% and cast off :|.
%%endtext
% - - - - - - - - - - - - - - - - - - - - - - - - -

%%sep 1 1 500
%%sep 1 1 500
